X: 1
T: Shoe the Donkey
M: 3/4
L: 1/8
K: G
|:DG|B2B2DG|B2B2DG|B2C'2B2|A4DF|
A2A2DF|A2A2DF|A2B2A2|G4:||BC'|
D'2G'2F'2|A4AB|C'2E'2D'2|B4BC'|
B2A2B2|C'4C'D'|E'2D'2C'2|B4BC'|
D'2G'2F'2|A4AB|C'2E'2D'2|B4BC'|
B2A2B2|C'4C'D'|E'2D'2F2|B4|]